X: 1015
T: Ally Bally
R: jig
M: 6/8
K: Eminor
|:A|B>EE [B,E]2[B,E]|[CE]2 [E] {G}E>DE|D>FF A>FF|G>Bd d>ed|
B>EE [B,E]2[B,E]|[CE]2 [E] {G}E>DE|B>BB A>GF|G>EE E2:|
|:F|G>GG G>BG|d>GB G>BG|A>FD D>FA|d>dd A>FD|
B>EE E>BE|c>EB {G}E>DE|B>BB A>GF|1 G>EE E2:|2 G>EE [E2B,2]||

